X:1
N: Montgomery's Rant
N: 8x32R 3C (RSCDS Bk 10)
P: Lady Montgomery
C: Skye Colln, arr. T. Traub 12-28-1997
M: C
R: reel
L: 1/8
K: Bb
"F7"F|: "Bb" B2 BF DEFD|"Eb"B2 BG "F"ABcd|"Bb"B/B/B BF DEFD|"Cm"CccB "F"ABcd :|
"Bb"B/B/B fB dB f2|B/B/B fB defb|B/B/B fB "Gm"dBfd|"Cm"edcB "F"ABcd|
"Bb"B/B/B fB dB f2|Bgfe defg|fdec dBcA|"Cm"BGFD "F"Cccd|]
